P3
8 8
255
245 158 11 245 158 11 245 158 11 245 158 11 20 83 45 20 83 45 20 83 45 20 83 45
245 158 11 255 247 237 255 247 237 245 158 11 20 83 45 240 253 244 240 253 244 20 83 45
245 158 11 255 247 237 255 247 237 245 158 11 20 83 45 240 253 244 240 253 244 20 83 45
245 158 11 245 158 11 245 158 11 245 158 11 20 83 45 20 83 45 20 83 45 20 83 45
153 27 27 153 27 27 153 27 27 153 27 27 14 116 144 14 116 144 14 116 144 14 116 144
153 27 27 254 242 242 254 242 242 153 27 27 14 116 144 236 254 255 236 254 255 14 116 144
153 27 27 254 242 242 254 242 242 153 27 27 14 116 144 236 254 255 236 254 255 14 116 144
153 27 27 153 27 27 153 27 27 153 27 27 14 116 144 14 116 144 14 116 144 14 116 144
